release/img/icons/cart_full.svg

<svg width="12" height="12" fill="none" xmlns="http://www.w3.org/2000/svg"><path d="M3.6 9.6c-.66 0-1.194.54-1.194 1.2 0 .66.534 1.2 1.194 1.2.66 0 1.2-.54 1.2-1.2 0-.66-.54-1.2-1.2-1.2zM0 0v1.2h1.2l2.16 4.554-.81 1.47a1.16 1.16 0 00-.15.576c0 .66.54 1.2 1.2 1.2h7.2V7.8H3.852a.149.149 0 01-.15-.15l.018-.072.54-.978h4.47c.45 0 .846-.246 1.05-.618l2.148-3.894A.602.602 0 0011.4 1.2H2.526L1.962 0H0zm9.6 9.6c-.66 0-1.194.54-1.194 1.2 0 .66.534 1.2 1.194 1.2.66 0 1.2-.54 1.2-1.2 0-.66-.54-1.2-1.2-1.2z" fill="#fff"/></svg>

<svg width="12" height="12" viewBox="0 0 12 12" fill="none" xmlns="http://www.w3.org/2000/svg">
<path d="M3.6 9.6C2.94 9.6 2.406 10.14 2.406 10.8C2.406 11.46 2.94 12 3.6 12C4.26 12 4.8 11.46 4.8 10.8C4.8 10.14 4.26 9.6 3.6 9.6ZM0 0V1.2H1.2L3.36 5.754L2.55 7.224C2.454 7.392 2.4 7.59 2.4 7.8C2.4 8.46 2.94 9 3.6 9H10.8V7.8H3.852C3.768 7.8 3.702 7.734 3.702 7.65L3.72 7.578L4.26 6.6H8.73C9.18 6.6 9.576 6.354 9.78 5.982L11.928 2.088C11.976 2.004 12 1.902 12 1.8C12 1.47 11.73 1.2 11.4 1.2H2.526L1.962 0H0ZM9.6 9.6C8.94 9.6 8.406 10.14 8.406 10.8C8.406 11.46 8.94 12 9.6 12C10.26 12 10.8 11.46 10.8 10.8C10.8 10.14 10.26 9.6 9.6 9.6Z" fill="white"/>
</svg>
